fs/filter_sync_24_filled.svg

<svg viewBox="0 0 24 24" fill="none" xmlns="http://www.w3.org/2000/svg" height="1em" width="1em">
  <path d="M12 7.5C12 10.5376 14.4624 13 17.5 13C20.5376 13 23 10.5376 23 7.5C23 4.46243 20.5376 2 17.5 2C14.4624 2 12 4.46243 12 7.5ZM20.5 4C20.7761 4 21 4.22386 21 4.5V6.5C21 6.77614 20.7761 7 20.5 7H18.5C18.2239 7 18 6.77614 18 6.5C18 6.22386 18.2239 6 18.5 6H19.5003C19.0436 5.39204 18.3174 5 17.5 5C16.6666 5 15.9283 5.40734 15.4733 6.036C15.3113 6.25969 14.9987 6.30976 14.775 6.14785C14.5514 5.98593 14.5013 5.67333 14.6632 5.44964C15.2982 4.57236 16.3323 4 17.5 4C18.4798 4 19.3651 4.4027 20 5.05058V4.5C20 4.22386 20.2239 4 20.5 4ZM15 9.94938V10.5C15 10.7761 14.7761 11 14.5 11C14.2239 11 14 10.7761 14 10.5V8.5C14 8.22386 14.2239 8 14.5 8H16.5C16.7761 8 17 8.22386 17 8.5C17 8.77614 16.7761 9 16.5 9H15.4998C15.9564 9.60796 16.6827 10 17.5 10C18.2663 10 18.9518 9.65581 19.4112 9.11179C19.5893 8.9008 19.9048 8.87419 20.1158 9.05235C20.3268 9.2305 20.3534 9.54596 20.1752 9.75695C19.534 10.5164 18.5732 11 17.5 11C16.5203 11 15.6349 10.5973 15 9.94938ZM8 13H14.0343C13.2256 12.4894 12.5374 11.8053 12.0218 11H8L7.88338 11.0067C7.38604 11.0645 7 11.4872 7 12C7 12.5523 7.44772 13 8 13ZM5 6H11.1739C11.0602 6.48152 11 6.98373 11 7.5C11 7.66824 11.0064 7.83498 11.0189 8H5C4.44772 8 4 7.55228 4 7C4 6.48716 4.38604 6.06449 4.88338 6.00673L5 6ZM9.88338 16.0067L10 16H14C14.5523 16 15 16.4477 15 17C15 17.5128 14.614 17.9355 14.1166 17.9933L14 18H10C9.44772 18 9 17.5523 9 17C9 16.4872 9.38604 16.0645 9.88338 16.0067Z" fill="#212121"/>
</svg>

<svg viewBox="0 0 24 24" fill="none" xmlns="http://www.w3.org/2000/svg" height="1em" width="1em">
  <path d="M12 7.5a5.5 5.5 0 1 0 11 0 5.5 5.5 0 0 0-11 0ZM20.5 4a.5.5 0 0 1 .5.5v2a.5.5 0 0 1-.5.5h-2a.5.5 0 0 1 0-1h1a2.496 2.496 0 0 0-2-1c-.833 0-1.572.407-2.027 1.036a.5.5 0 0 1-.81-.586A3.496 3.496 0 0 1 17.5 4c.98 0 1.865.403 2.5 1.05V4.5a.5.5 0 0 1 .5-.5ZM15 9.95v.55a.5.5 0 0 1-1 0v-2a.5.5 0 0 1 .5-.5h2a.5.5 0 0 1 0 1h-1c.456.608 1.183 1 2 1 .766 0 1.452-.344 1.911-.888a.5.5 0 1 1 .764.645A3.493 3.493 0 0 1 17.5 11 3.49 3.49 0 0 1 15 9.95ZM8 13h6.034a6.534 6.534 0 0 1-2.012-2H8l-.117.007A1 1 0 0 0 8 13ZM5 6h6.174a6.52 6.52 0 0 0-.155 2H5a1 1 0 0 1-.117-1.993L5 6Zm4.883 10.007L10 16h4a1 1 0 0 1 .117 1.993L14 18h-4a1 1 0 0 1-.117-1.993Z" fill="#212121"/>
</svg>
